X: 24396
T: Lovely Nancy
R: waltz
M: 3/4
K: Fdorian
K: EbMaj
|:G>F|E2 E2 EF/G/|F2 F2 FG/A/|G2 ec BG|G2 F2 G>F|
E2 E2 EF/G/|G2 F2 AB/c/|B>c BG F>G|E4:|
|:G>A|B2 B2 ec|c2 B2 G>A|B2 B2 eG|G2 F2 G>F|
E2 E2 EF/G/|G2 F2 AB/c/|B>c BG F>G|E4:|

